packages/icons/general/History.light.svg

<svg width="24" height="24" viewBox="0 0 24 24" xmlns="http://www.w3.org/2000/svg">
<g>
        <path
            fill-rule="evenodd"
            clip-rule="evenodd"
            d="M3.74268 3.91858C3.1134 4.59626 2.76895 5.62185 2.76895 6.99922V16.9992C2.76895 18.3766 3.1134 19.4022 3.74268 20.0799C4.36199 20.7468 5.37143 21.1992 6.96895 21.1992H14.344C14.7859 21.1992 15.144 21.5574 15.144 21.9992C15.144 22.441 14.7859 22.7992 14.344 22.7992H6.96895C5.06647 22.7992 3.5759 22.2516 2.57021 21.1686C1.57449 20.0963 1.16895 18.6219 1.16895 16.9992V6.99922C1.16895 5.37658 1.57449 3.90217 2.57021 2.82986C3.5759 1.74681 5.06647 1.19922 6.96895 1.19922H14.9689C16.8714 1.19922 18.362 1.74681 19.3677 2.82986C20.3634 3.90217 20.7689 5.37658 20.7689 6.99922V11.2037C20.7689 11.6455 20.4108 12.0037 19.9689 12.0037C19.5271 12.0037 19.1689 11.6455 19.1689 11.2037V6.99922C19.1689 5.62185 18.8245 4.59626 18.1952 3.91858C17.5759 3.25163 16.5665 2.79922 14.9689 2.79922H6.96895C5.37143 2.79922 4.36199 3.25163 3.74268 3.91858Z"
        />
        <path
            fill-rule="evenodd"
            clip-rule="evenodd"
            d="M18.9504 14.4176C17.0495 14.4176 15.5084 15.9586 15.5084 17.8596C15.5084 19.7606 17.0495 21.3017 18.9504 21.3017C20.8514 21.3017 22.3925 19.7606 22.3925 17.8596C22.3925 15.9586 20.8514 14.4176 18.9504 14.4176ZM14.1084 17.8596C14.1084 15.1854 16.2763 13.0176 18.9504 13.0176C21.6246 13.0176 23.7925 15.1854 23.7925 17.8596C23.7925 20.5338 21.6246 22.7017 18.9504 22.7017C16.2763 22.7017 14.1084 20.5338 14.1084 17.8596Z"
        />
        <path
            fill-rule="evenodd"
            clip-rule="evenodd"
            d="M18.949 14.8945C19.3356 14.8945 19.649 15.2079 19.649 15.5945V17.8727C19.649 18.2593 19.3356 18.5727 18.949 18.5727C18.5624 18.5727 18.249 18.2593 18.249 17.8727V15.5945C18.249 15.2079 18.5624 14.8945 18.949 14.8945Z"
        />
        <path
            fill-rule="evenodd"
            clip-rule="evenodd"
            d="M18.3434 17.5222C18.5367 17.1874 18.9648 17.0727 19.2996 17.266L20.9681 18.2294C21.3029 18.4227 21.4177 18.8508 21.2244 19.1856C21.0311 19.5204 20.6029 19.6351 20.2681 19.4418L18.5996 18.4785C18.2648 18.2852 18.1501 17.857 18.3434 17.5222Z"
        />
        <path
            fill-rule="evenodd"
            clip-rule="evenodd"
            d="M14.9504 2C15.3922 2 15.7504 2.35817 15.7504 2.8V4.8C15.7504 5.45817 16.2922 6 16.9504 6H18.9504C19.3922 6 19.7504 6.35817 19.7504 6.8C19.7504 7.24183 19.3922 7.6 18.9504 7.6H16.9504C15.4086 7.6 14.1504 6.34183 14.1504 4.8V2.8C14.1504 2.35817 14.5086 2 14.9504 2Z"
        />
        <path
            fill-rule="evenodd"
            clip-rule="evenodd"
            d="M6.16699 10.3879C6.16699 9.94606 6.52516 9.58789 6.96699 9.58789H12.967C13.4088 9.58789 13.767 9.94606 13.767 10.3879C13.767 10.8297 13.4088 11.1879 12.967 11.1879H6.96699C6.52516 11.1879 6.16699 10.8297 6.16699 10.3879Z"
        />
        <path
            fill-rule="evenodd"
            clip-rule="evenodd"
            d="M6.16699 15.2375C6.16699 14.7957 6.52516 14.4375 6.96699 14.4375H11.781C12.2228 14.4375 12.581 14.7957 12.581 15.2375C12.581 15.6793 12.2228 16.0375 11.781 16.0375H6.96699C6.52516 16.0375 6.16699 15.6793 6.16699 15.2375Z"
        />
    </g>
</svg>

<svg xmlns="http://www.w3.org/2000/svg" viewBox="0 0 24 24">
    <g fill-rule="evenodd" clip-rule="evenodd">
        <path d="M3.743 3.919c-.63.677-.974 1.703-.974 3.08v10c0 1.378.344 2.403.974 3.08.619.668 1.628 1.12 3.226 1.12h7.375a.8.8 0 1 1 0 1.6H6.969c-1.903 0-3.393-.547-4.399-1.63-.996-1.073-1.401-2.547-1.401-4.17V7c0-1.622.405-3.097 1.401-4.17C3.576 1.748 5.066 1.2 6.97 1.2h8c1.902 0 3.393.548 4.399 1.63.995 1.073 1.4 2.548 1.4 4.17v4.205a.8.8 0 1 1-1.6 0V6.999c0-1.377-.343-2.403-.973-3.08-.62-.667-1.628-1.12-3.226-1.12h-8c-1.598 0-2.607.453-3.226 1.12Z"/>
        <path d="M18.95 14.418a3.442 3.442 0 1 0 0 6.884 3.442 3.442 0 0 0 0-6.884Zm-4.842 3.442a4.842 4.842 0 1 1 9.684 0 4.842 4.842 0 0 1-9.684 0Z"/>
        <path d="M18.949 14.895a.7.7 0 0 1 .7.7v2.278a.7.7 0 1 1-1.4 0v-2.279a.7.7 0 0 1 .7-.7Z"/>
        <path d="M18.343 17.522a.7.7 0 0 1 .957-.256l1.668.963a.7.7 0 1 1-.7 1.213l-1.668-.963a.7.7 0 0 1-.257-.957ZM14.95 2a.8.8 0 0 1 .8.8v2c0 .658.542 1.2 1.2 1.2h2a.8.8 0 0 1 0 1.6h-2a2.806 2.806 0 0 1-2.8-2.8v-2a.8.8 0 0 1 .8-.8Zm-8.783 8.388a.8.8 0 0 1 .8-.8h6a.8.8 0 0 1 0 1.6h-6a.8.8 0 0 1-.8-.8Zm0 4.85a.8.8 0 0 1 .8-.8h4.814a.8.8 0 0 1 0 1.6H6.967a.8.8 0 0 1-.8-.8Z"/>
    </g>
</svg>
